X:1
T:The Distressed Damsel
M:6/8
L:1/4
K:G
 D/2| G G/2 G G/2| F3/2 D3/2| G G/2 G G/2| F3/2 D3/2| G- A/2 B- c/2|\
 d- B/2 A- G/2| A3/2 d3/2| d3/2 z B/2| B A/2 B c/2| d3/2 D3/2| G A/2 G E/2|\
 C3/2 E E/2| D G/2 G G/2| A G/2 F E/2| D3/2 E3/2| G3/2 z||

